X:1
T:Riyadh, CMD
T:Riyadh, CMD
T:George Coles Stebbins, 1881
T:Public Domain Courtesy of the Cyber Hymnal™
C:George Coles Stebbins, 1881
Z:Public Domain
Z:Courtesy of the Cyber Hymnal™
%%score ( 1 2 ) ( 3 4 )
L:1/8
Q:1/4=110
M:4/4
K:Eb
V:1 treble 
V:2 treble 
V:3 bass 
V:4 bass 
V:1
 ([EG][FA]) | [GB]3 [Ac] [GB]2 [EG]2 | E2 [DF]2 [EG]3 [EG] | [EA]2 [Ec]2 [EB]3 [EG] | %4
 [DF]6 ([EG][FA]) | [GB]3 [Ac] [GB]2 [EG]2 | E2 [DF]2 [EG]3 [EG] | [DF]2 [FB]2 [F=A]3 [Ec] | %8
 [DB]6 [AB]2 | [Ge]3 [Ge] [Ge]2 [Ac]2 | [GB]3 [EG] [B,E]2 [DF]2 | [EG]2 [DA]2 [EB]3 [EG] | %12
 [DF]6 [AB]2 | [Ge]3 [Ge] [Ge]2 [Ac]2 | [GB]3 [EG] E2 [EF]2 | [EG]3 [EA] [EG]2 [DF]2 | E6 |] %17
V:2
 x2 | x8 | E2 x6 | x8 | x8 | x8 | E2 x6 | x8 | x8 | x8 | x8 | x8 | x8 | x8 | x4 E2 x2 | x8 | E6 |] %17
V:3
 [E,B,]2 | [E,E]3 [E,E] [E,E]2 [E,B,]2 | [G,B,]2 [F,B,]2 [E,B,]3 [E,B,] | %3
 [A,,C]2 [A,,A,]2 [E,G,]3 [E,B,] | [B,,B,]6 [E,B,]2 | [E,E]3 [E,E] [E,E]2 [E,B,]2 | %6
 [G,B,]2 [F,B,]2 [E,B,]3 [E,B,] | [F,B,]2 [F,D]2 [F,C]3 [F,=A,] | [B,,B,]6 B,2 | %9
 [E,B,]3 [E,B,] [E,B,]2 [E,E]2 | [E,E]3 [E,B,] [E,G,]2 [B,,B,]2 | [E,B,]2 [F,B,]2 [G,E]3 [E,B,] | %12
 [B,,B,]6 B,2 | [E,B,]3 [E,B,] [E,B,]2 [E,E]2 | [E,E]3 [E,B,] [E,G,]2 [A,,C]2 | %15
 [B,,B,]3 [B,,C] [B,,B,]2 [B,,A,]2 | [E,G,]6 |] %17
V:4
 x2 | x8 | x8 | x8 | x8 | x8 | x8 | x8 | x6 B,2 | x8 | x8 | x8 | x6 B,2 | x8 | x8 | x8 | x6 |] %17

